icon-themes/breeze_svg/cmd/ar/lc_redo.svg

<svg viewBox="0 0 24 24" xmlns="http://www.w3.org/2000/svg"><path d="m9.3007812 4-3.2929687 3.2929688-.2070313.2070312.2070313.2070312 3.2929687 3.2929688.7070308-.707031-2.2929682-2.292969h2.2851562 1.007812.492188c3.047 0 5.5 2.453 5.5 5.5s-2.453 5.5-5.5 5.5h-1.5v1h1.5c3.601 0 6.5-2.899 6.5-6.5s-2.899-6.5-6.5-6.5h-.492188-1.007812-2.2851562l2.2929682-2.2929688z" fill="#4d4d4d"/></svg>

<svg xmlns="http://www.w3.org/2000/svg" viewBox="0 0 24 24">
 <path 
     style="fill:#4d4d4d" 
     d="M 9.3007812 4 L 6.0078125 7.2929688 L 5.8007812 7.5 L 6.0078125 7.7070312 L 9.3007812 11 L 10.007812 10.292969 L 7.7148438 8 L 10 8 L 11.007812 8 L 11.5 8 C 14.547 8 17 10.453 17 13.5 C 17 16.547 14.547 19 11.5 19 L 10 19 L 10 20 L 11.5 20 C 15.101 20 18 17.101 18 13.5 C 18 9.899 15.101 7 11.5 7 L 11.007812 7 L 10 7 L 7.7148438 7 L 10.007812 4.7070312 L 9.3007812 4 z "
     />
 </svg>
